X: 387
T: Ellis' jig
C: anon.
O: Ireland
B: Francis O'Neill: "The Dance Music of Ireland" (1907) no. 387
R: Single jig
Z: Transcribed by Frank Nordberg - http://www.musicaviva.com
F: http://www.musicaviva.com/abc/tunes/ireland/oneill-1001/oneill-1001-038
7.abc
M: 6/8
L: 1/8
K: G
D|G>AG B2G|c2A F2D|G>AG B2c|d2g B2c|dge =f2d|cAG F2A|d>ed cBA|G3 G2:|
||d|g2d B2G|c2A F2D|g2d B2c|dde f2e|dge f2d|cAG F2A|d>ed cBA|G3 G2:|
W:
W:
W: From Musica Viva - http://www.musicaviva.com
W: the Internet center for free sheet music downloads.


